svg/justvector/ming.svg

<svg xmlns="http://www.w3.org/2000/svg" viewBox="0 0 100 100" enable-background="new 0 0 100 100"><path d="m82.41 65.79c0-3.447 2.821-6.243 6.299-6.243 3.48 0 6.297 2.796 6.297 6.243s-2.816 6.243-6.297 6.243c-3.477 0-6.299-2.796-6.299-6.243m6.299-25.862c3.48 0 6.297-2.796 6.297-6.242 0-3.447-2.816-6.243-6.297-6.243-3.478 0-6.299 2.796-6.299 6.243 0 3.446 2.822 6.242 6.299 6.242m-23.875 1.301c0 3.448 2.817 6.242 6.298 6.242 3.478 0 6.298-2.794 6.298-6.242 0-3.447-2.82-6.243-6.298-6.243-3.481-.0001-6.298 2.795-6.298 6.243m-31.23 41.28c-3.478 0-6.298 2.796-6.298 6.243s2.82 6.243 6.298 6.243 6.298-2.796 6.298-6.243-2.821-6.243-6.298-6.243m24.926-47.529c3.48 0 6.301-2.796 6.301-6.243s-2.82-6.242-6.301-6.242c-3.477 0-6.297 2.795-6.297 6.242s2.821 6.243 6.297 6.243m12.599 17.17c-3.48 0-6.298 2.796-6.298 6.243s2.817 6.242 6.298 6.242c3.478 0 6.298-2.795 6.298-6.242s-2.821-6.243-6.298-6.243m-29.652 12.486c-3.478 0-6.298 2.796-6.298 6.243s2.82 6.242 6.298 6.242 6.298-2.795 6.298-6.242-2.821-6.243-6.298-6.243m24.851 17.875c-3.478 0-6.298 2.796-6.298 6.243s2.821 6.243 6.298 6.243 6.298-2.796 6.298-6.243-2.82-6.243-6.298-6.243m0-65.03c3.478 0 6.298-2.796 6.298-6.243 0-3.447-2.82-6.243-6.298-6.243s-6.298 2.796-6.298 6.243c0 3.447 2.821 6.243 6.298 6.243m-37.447 47.15c3.478 0 6.298-2.795 6.298-6.242s-2.82-6.243-6.298-6.243-6.296 2.796-6.296 6.243 2.818 6.242 6.296 6.242m-17.58-24.711c3.478 0 6.298-2.796 6.298-6.242 0-3.447-2.82-6.243-6.298-6.243s-6.298 2.796-6.298 6.243c0 3.446 2.82 6.242 6.298 6.242m0 32.11c3.478 0 6.298-2.796 6.298-6.243s-2.82-6.243-6.298-6.243-6.298 2.796-6.298 6.243 2.82 6.243 6.298 6.243m17.58-24.562c3.478 0 6.298-2.794 6.298-6.242 0-3.447-2.82-6.243-6.298-6.243s-6.296 2.796-6.296 6.243c0 3.448 2.818 6.242 6.296 6.242m29.649 29.653c3.48 0 6.301-2.795 6.301-6.242s-2.82-6.243-6.301-6.243c-3.477 0-6.297 2.796-6.297 6.243s2.821 6.242 6.297 6.242m-23.351-48.38c0 3.447 2.82 6.243 6.298 6.243s6.298-2.796 6.298-6.243-2.82-6.242-6.298-6.242-6.298 2.795-6.298 6.242m-1.575-11.257c3.478 0 6.298-2.796 6.298-6.243-.0001-3.447-2.821-6.242-6.298-6.242s-6.298 2.796-6.298 6.243c0 3.446 2.82 6.242 6.298 6.242"/></svg>

<?xml version="1.0" encoding="iso-8859-1"?>
<!-- Generator: Adobe Illustrator 15.0.0, SVG Export Plug-In . SVG Version: 6.00 Build 0)  -->
<!DOCTYPE svg PUBLIC "-//W3C//DTD SVG 1.1//EN" "http://www.w3.org/Graphics/SVG/1.1/DTD/svg11.dtd">
<svg version="1.1" id="Layer_1" xmlns="http://www.w3.org/2000/svg" xmlns:xlink="http://www.w3.org/1999/xlink" x="0px" y="0px"
	 width="100px" height="100px" viewBox="0 0 100 100" style="enable-background:new 0 0 100 100;" xml:space="preserve">
<path id="Ning" d="M82.406,65.79c0-3.447,2.821-6.243,6.299-6.243c3.48,0,6.297,2.796,6.297,6.243s-2.816,6.243-6.297,6.243
	C85.228,72.033,82.406,69.237,82.406,65.79z M88.705,39.928c3.48,0,6.297-2.796,6.297-6.242c0-3.447-2.816-6.243-6.297-6.243
	c-3.478,0-6.299,2.796-6.299,6.243C82.406,37.132,85.228,39.928,88.705,39.928z M64.83,41.229c0,3.448,2.817,6.242,6.298,6.242
	c3.478,0,6.298-2.794,6.298-6.242c0-3.447-2.82-6.243-6.298-6.243C67.647,34.985,64.83,37.781,64.83,41.229z M33.603,82.514
	c-3.478,0-6.298,2.796-6.298,6.243S30.125,95,33.603,95s6.298-2.796,6.298-6.243S37.08,82.514,33.603,82.514z M58.529,34.985
	c3.48,0,6.301-2.796,6.301-6.243S62.01,22.5,58.529,22.5c-3.477,0-6.297,2.795-6.297,6.242S55.053,34.985,58.529,34.985z
	 M71.128,52.153c-3.48,0-6.298,2.796-6.298,6.243s2.817,6.242,6.298,6.242c3.478,0,6.298-2.795,6.298-6.242
	S74.605,52.153,71.128,52.153z M41.476,64.639c-3.478,0-6.298,2.796-6.298,6.243s2.82,6.242,6.298,6.242s6.298-2.795,6.298-6.242
	S44.953,64.639,41.476,64.639z M66.327,82.514c-3.478,0-6.298,2.796-6.298,6.243S62.85,95,66.327,95s6.298-2.796,6.298-6.243
	S69.805,82.514,66.327,82.514z M66.327,17.485c3.478,0,6.298-2.796,6.298-6.243c0-3.447-2.82-6.243-6.298-6.243
	s-6.298,2.796-6.298,6.243C60.029,14.689,62.85,17.485,66.327,17.485z M28.88,64.639c3.478,0,6.298-2.795,6.298-6.242
	s-2.82-6.243-6.298-6.243s-6.296,2.796-6.296,6.243S25.402,64.639,28.88,64.639z M11.3,39.928c3.478,0,6.298-2.796,6.298-6.242
	c0-3.447-2.82-6.243-6.298-6.243s-6.298,2.796-6.298,6.243C5.002,37.132,7.822,39.928,11.3,39.928z M11.3,72.033
	c3.478,0,6.298-2.796,6.298-6.243s-2.82-6.243-6.298-6.243s-6.298,2.796-6.298,6.243S7.822,72.033,11.3,72.033z M28.88,47.471
	c3.478,0,6.298-2.794,6.298-6.242c0-3.447-2.82-6.243-6.298-6.243s-6.296,2.796-6.296,6.243
	C22.584,44.677,25.402,47.471,28.88,47.471z M58.529,77.124c3.48,0,6.301-2.795,6.301-6.242s-2.82-6.243-6.301-6.243
	c-3.477,0-6.297,2.796-6.297,6.243S55.053,77.124,58.529,77.124z M35.178,28.742c0,3.447,2.82,6.243,6.298,6.243
	s6.298-2.796,6.298-6.243s-2.82-6.242-6.298-6.242S35.178,25.295,35.178,28.742z M33.603,17.485c3.478,0,6.298-2.796,6.298-6.243
	C39.9,7.795,37.08,5,33.603,5s-6.298,2.796-6.298,6.243C27.305,14.689,30.125,17.485,33.603,17.485z"/>
</svg>
